X: 29538
T: Noble Squire Dacre
R: jig
M: 6/8
K: Gmajor
|:B>A G GDG|G>A B A2G|c>B A A<E A|c2 e efg|B>a G G<D G|G>A B A2 G|cec d2e/f/|gdB A3:|gdB AGA|
|:B G/A/B/G/ d G/A/B/G/|B G/A/B/G/ d G/A/B/G/|c A/B/c/A/ e A/B/c/A/|cec e>fg|B G/A/B/G/ d G/A/B/G/|B G/A/B/G/ d G/A/B/G/|cec d2e/f/|gdB A2G/A/:|gdB AGF|G6|G6|

